X:100
T:VNSANDS2- Venus and Adonis
S:English County Songs, 1893
Q:1/4=100
L:1/4
M:C
K:Eb
(C/B,/)|EFGc/ c/|B3/4 c/4 B/ A/ (~G/F/) G/ F/|\
EFG/ c/ B/ A/|G~FE:|B|ED(C/D/) E/ G/|F/ E/ D/ C/ B,(E3/4F/4)|\
(G/E/) F/ A2|B2.F(G/B/)|cG/ B/ (.e/d/)(3 c/B/A/|GFE|]

